X: 235
T: Başında Altın Para
C: İzzet Altınmeşe
O: Turkey
F: http://compmusic.upf.edu/node/140
N: tahir--turku--sofyan--basinda_altin--diyarbakir
N: makam= tahir
N: form= turku
N: usul= sofyan = 4/4
M: 4/4
L: 1/16
K: C _2/4B ^3/4f  
Q: 1/4=93
%%MIDI tuningsystem comma53
ed2c c2 ed  | d3B c4  | dc2B B2 dc  | c3B B4  | \
w:  ARANAĞME  |   |   |   | 
cB2A A2 cB  | 
w:   | 
B{c}B cA A4  | dc cB dc cB  | cB2A A4  | \
w:   |   |   | 
ed2c c2 ed  | 
w:  ARANAĞME  | 
d3B c4  | dc2B B2 dc  | c3B B4  | cB2A A2 cB  | \
w:   |   |   |   | 
B{c}B cA A4  | 
w:   | 
dc cB dc cB  | cB2A A4  | z2 f2 g2 a2  | \
w:   |   |  Ba şın da   | 
a2 a2 aa3  | z2 g2 g2 c'b  | 
w:  al tın  pa ra    |  Her  gün  ge  | 
c'a a2 aa3  | z2 f2 g2 a2  | a2 a2 aa3  | \
w:  lir  *  pı na ra    |  Ba şın da   |  al tın  pa ra    | 
z2 g2 g2 c'b  | c'a a2 aa3  | 
w:  Her  gün  ge  |  lir  *  pı na ra    | 
z2 gf gf gf  | gf gf ag gf  | f2 fe e2 gf  | 
w:  Be *  ni  *  a  |  te *  şe  *  koy *  du    |  Çe kil *  di  bir   | 
gf2e e4  | g3f g3f  | g3f f3e  | e2 ed d2 gf  | \
w:  ke na *  ra    |  Oy  *  oy   |  oy  *  oy    |  Çe kil *  di  bir   | 
ge2d d2 ec  | 
w:  ke na *  ra    | 
ed2c c2 ed  | d3B c4  | dc2B B2 dc  | c3B B4  | \
w:  Tı fıl  *  yaş lım   |  gel  *  gel    |  Ka lem  *  kaş lım   |  gel  *  gel    | 
cB2A A2 cB  | 
w:  U sul  *  baş lım   | 
B{c}B cA A4  | dc cB dc cB  | cB2A A4  | \
w:  gel  *  *  *  *  gel    |  Hoş  *  ba *  kış *  lım   |  gel  *  *  gel    | 
ed2c c2 ed  | 
w:  Tı fıl  *  yaş lım   | 
d3B c4  | dc2B B2 dc  | c3B B4  | cB2A A2 cB  | \
w:  gel  *  gel    |  Ka lem  *  kaş lım   |  gel  *  gel    |  U sul  *  baş lım   | 
B{c}B cA A4  | 
w:  gel  *  *  *  *  gel    | 
dc cB dc cB  | cB2A A4  | ed2c c2 ed  | \
w:  Hoş  *  ba *  kış *  lım   |  gel  *  *  gel    |  ARANAĞME  | 
d3B c4  | 
w:   | 
dc2B B2 dc  | c3B B4  | cB2A A2 cB  | B{c}B cA A4  | \
w:   |   |   |   | 
dc cB dc cB  | 
w:   | 
cB2A A4  | ed2c c2 ed  | d3B c4  | dc2B B2 dc  | \
w:   |  ARANAĞME  |   |   | 
c3B B4  | 
w:   | 
cB2A A2 cB  | B{c}B cA A4  | dc cB dc cB  | \
w:   |   |   | 
cB2A A4  | 
w:   | 
z2 f2 g2 a2  | a2 a2 aa3  | z2 g2 g2 c'b  | \
w:  Ba şın da   |  al tın  pa ra    |  Her  gün  ge  | 
c'a a2 aa3  | z2 f2 g2 a2  | 
w:  lir  *  pı na ra    |  Ba şın da   | 
a2 a2 aa3  | z2 g2 g2 c'b  | c'a a2 aa3  | \
w:  al tın  pa ra    |  Her  gün  ge  |  lir  *  pı na ra    | 
z2 gf gf gf  | 
w:  Be *  ni  *  a  | 
gf gf ag gf  | f2 fe e2 gf  | gf2e e4  | \
w:  te *  şe  *  koy *  du    |  Çe kil *  di  bir   |  ke na *  ra    | 
g3f g3f  | 
w:  Oy  *  oy   | 
g3f f3e  | e2 ed d2 gf  | ge2d d2 ec  | \
w:  oy  *  oy    |  Çe kil *  di  bir   |  ke na *  ra    | 
ed2c c2 ed  | 
w:  Tı fıl  *  yaş lım   | 
d3B c4  | dc2B B2 dc  | c3B B4  | cB2A A2 cB  | \
w:  gel  *  gel    |  Ka lem  *  kaş lım   |  gel  *  gel    |  U sul  *  baş lım   | 
B{c}B cA A4  | 
w:  gel  *  *  *  *  gel    | 
dc cB dc cB  | cB2A A4  | ed2c c2 ed  | \
w:  Hoş  *  ba *  kış *  lım   |  gel  *  *  gel    |  Tı fıl  *  yaş lım   | 
d3B c4  | 
w:  gel  *  gel    | 
dc2B B2 dc  | c3B B4  | cB2A A2 cB  | B{c}B cA A4  | \
w:  Ka lem  *  kaş lım   |  gel  *  gel    |  U sul  *  baş lım   |  gel  *  *  *  *  gel    | 
dc cB dc cB  | 
w:  Hoş  *  ba *  kış *  lım   | 
cB2A A4  | |


